X: 07106
T: SGT. TONY'S JIG
C: Bob McQuillen 6 June 89
B: Bob's Note Book 7 #106
%R: 6/8
Z: 2019 John Chambers <jc:trillian.mit.edu>
M: 6/8
L: 1/8
K: G
DE \
| GDD B,DD | GBA GEE | GDD B,DD | GAB AGE |\
| DGG EGG | DGB dge | dBG AGE | DGG G :|
|: Bd \
| geg dBd | gab agf | geg dBd | cde def |\
| geg dBG | cde def | gfe dcB | AGF G :|
%%begintext align
%% With the third weekend in April each
%% year comes the New England Folk Festival, held at the Natick, Mass.
%% High School (where Doug Flutie went), and we are always warmly
%% welcomed by Sgt. Tony Melchiorri of the Natick Police Dept.
%% Thanks so much for your kindness to us, Tony - It is much appreciated
%% by your friend, Bob.
%%endtext

%%sep 1 1 500

%%sep 1 1 500

